symbols/web/emoji_food_beverage/materialsymbolsoutlined/emoji_food_beverage_wght300gradN25_48px.svg

<svg xmlns="http://www.w3.org/2000/svg" height="48" width="48"><path d="M9.15 40.75v-2.2h29.2v2.2Zm6.55-6.25q-2.75 0-4.65-1.9-1.9-1.9-1.9-4.65V7.25h30q1.15 0 1.975.85.825.85.825 1.95v6.5q0 1.1-.825 1.95-.825.85-1.975.85h-4.1v8.6q0 2.75-1.9 4.65-1.9 1.9-4.7 1.9Zm19.35-17.35h4.1q.25 0 .425-.175t.175-.475v-6.4q0-.3-.175-.475t-.425-.175h-4.1ZM15.7 32.3h12.75q1.75 0 3.075-1.3 1.325-1.3 1.325-3.05V9.45H19.8v2.1l3.25 2.7q.05.05.45.85v6.45q0 .45-.35.8-.35.35-.85.35h-6.8q-.55 0-.875-.35-.325-.35-.325-.8V15.1q0-.2.45-.85l3.3-2.7v-2.1h-6.7v18.5q0 1.75 1.3 3.05 1.3 1.3 3.05 1.3Zm6.4-11.4ZM18.05 9.45h1.75Z"/></svg>

<svg xmlns="http://www.w3.org/2000/svg" height="48" width="48"><path d="M9.15 40.75V38.55H38.35V40.75ZM15.7 34.5Q12.95 34.5 11.05 32.6Q9.15 30.7 9.15 27.95V7.25H39.15Q40.3 7.25 41.125 8.1Q41.95 8.95 41.95 10.05V16.55Q41.95 17.65 41.125 18.5Q40.3 19.35 39.15 19.35H35.05V27.95Q35.05 30.7 33.15 32.6Q31.25 34.5 28.45 34.5ZM35.05 17.15H39.15Q39.4 17.15 39.575 16.975Q39.75 16.8 39.75 16.5V10.1Q39.75 9.8 39.575 9.625Q39.4 9.45 39.15 9.45H35.05ZM15.7 32.3H28.45Q30.2 32.3 31.525 31Q32.85 29.7 32.85 27.95V9.45H19.8V11.55L23.05 14.25Q23.1 14.3 23.5 15.1V21.55Q23.5 22 23.15 22.35Q22.8 22.7 22.3 22.7H15.5Q14.95 22.7 14.625 22.35Q14.3 22 14.3 21.55V15.1Q14.3 14.9 14.75 14.25L18.05 11.55V9.45H11.35V27.95Q11.35 29.7 12.65 31Q13.95 32.3 15.7 32.3ZM22.1 20.9Q22.1 20.9 22.1 20.9Q22.1 20.9 22.1 20.9Q22.1 20.9 22.1 20.9Q22.1 20.9 22.1 20.9ZM18.05 9.45H19.8Z"/></svg>
